Numix-Light/scalable/actions/spam-symbolic.svg

<?xml version="1.0" encoding="UTF-8" standalone="no"?>
<!-- Created with Inkscape (http://www.inkscape.org/) -->

<svg
   xmlns:dc="http://purl.org/dc/elements/1.1/"
   xmlns:cc="http://creativecommons.org/ns#"
   xmlns:rdf="http://www.w3.org/1999/02/22-rdf-syntax-ns#"
   xmlns:svg="http://www.w3.org/2000/svg"
   xmlns="http://www.w3.org/2000/svg"
   xmlns:sodipodi="http://sodipodi.sourceforge.net/DTD/sodipodi-0.dtd"
   xmlns:inkscape="http://www.inkscape.org/namespaces/inkscape"
   sodipodi:docname="spam-symbolic.svg"
   inkscape:export-filename="/home/sam/dev/RESOURCES/gnome-icon-theme-symbolic/src/gnome-stencils.png"
   inkscape:export-xdpi="90"
   inkscape:export-ydpi="90"
   height="16"
   id="svg7384"
   version="1.1"
   inkscape:version="0.91 r"
   width="16">
  <metadata
     id="metadata90">
    <rdf:RDF>
      <cc:Work
         rdf:about="">
        <dc:format>image/svg+xml</dc:format>
        <dc:type
           rdf:resource="http://purl.org/dc/dcmitype/StillImage" />
        <dc:title>elementary Symbolic Icon Theme</dc:title>
      </cc:Work>
    </rdf:RDF>
  </metadata>
  <sodipodi:namedview
     inkscape:bbox-nodes="true"
     inkscape:bbox-paths="true"
     bordercolor="#666666"
     borderopacity="1"
     inkscape:current-layer="layer12"
     inkscape:cx="8.2201898"
     inkscape:cy="9.0754702"
     gridtolerance="10"
     inkscape:guide-bbox="true"
     guidetolerance="10"
     id="namedview88"
     inkscape:object-nodes="true"
     inkscape:object-paths="false"
     objecttolerance="10"
     pagecolor="#3a3b39"
     inkscape:pageopacity="1"
     inkscape:pageshadow="2"
     showborder="true"
     showgrid="true"
     showguides="true"
     inkscape:snap-bbox="true"
     inkscape:snap-bbox-edge-midpoints="true"
     inkscape:snap-bbox-midpoints="true"
     inkscape:snap-global="true"
     inkscape:snap-grids="true"
     inkscape:snap-nodes="true"
     inkscape:snap-others="false"
     inkscape:snap-to-guides="true"
     inkscape:window-height="1056"
     inkscape:window-maximized="1"
     inkscape:window-width="1920"
     inkscape:window-x="0"
     inkscape:window-y="24"
     inkscape:zoom="45.254834">
    <inkscape:grid
       dotted="false"
       empspacing="4"
       enabled="true"
       id="grid4866"
       originx="0"
       originy="0"
       snapvisiblegridlinesonly="true"
       spacingx="1px"
       spacingy="1px"
       type="xygrid"
       visible="true" />
    <inkscape:grid
       color="#000000"
       dotted="true"
       empcolor="#000000"
       empopacity="0.25098039"
       empspacing="4"
       enabled="true"
       id="grid13609"
       opacity="0.1254902"
       originx="-293.00021px"
       originy="-48px"
       snapvisiblegridlinesonly="true"
       spacingx="0.5px"
       spacingy="0.5px"
       type="xygrid"
       visible="true" />
  </sodipodi:namedview>
  <title
     id="title9167">elementary Symbolic Icon Theme</title>
  <defs
     id="defs7386" />
  <g
     inkscape:groupmode="layer"
     id="layer9"
     label="status"
     inkscape:label="status"
     style="display:inline"
     transform="translate(-534.00041,-169)" />
  <g
     inkscape:groupmode="layer"
     id="layer10"
     inkscape:label="devices"
     style="display:inline"
     transform="translate(-534.00041,-169)" />
  <g
     inkscape:groupmode="layer"
     id="layer13"
     inkscape:label="places"
     style="display:inline"
     transform="translate(-534.00041,-169)" />
  <g
     inkscape:groupmode="layer"
     id="layer14"
     inkscape:label="mimes"
     transform="translate(-534.00041,-169)" />
  <g
     inkscape:groupmode="layer"
     id="layer15"
     inkscape:label="emblems"
     style="display:inline"
     transform="translate(-534.00041,-169)" />
  <g
     inkscape:groupmode="layer"
     id="g71291"
     inkscape:label="emotes"
     style="display:inline"
     transform="translate(-534.00041,-169)" />
  <g
     inkscape:groupmode="layer"
     id="layer12"
     inkscape:label="actions"
     style="display:inline"
     transform="translate(-534.00041,-169)">
    <path
       style="opacity:1;fill:#353535;fill-opacity:1;fill-rule:nonzero;stroke:none;stroke-width:2;stroke-linecap:butt;stroke-linejoin:miter;stroke-miterlimit:4;stroke-dasharray:none;stroke-dashoffset:0;stroke-opacity:1"
       d="M 5.0996094,1 1,5.0996094 1,10.900391 5.0996094,15 10.900391,15 15,10.900391 15,5.0996094 10.900391,1 Z M 7,3 9,3 9,9 7,9 Z m 1,8 c 0.5523017,5.8e-5 1,0.447756 1,1 0,0.552244 -0.4476983,0.999942 -1,1 -0.5523017,-5.8e-5 -1,-0.447756 -1,-1 0,-0.552244 0.4476983,-0.999942 1,-1 z"
       transform="translate(534.00041,169)"
       id="path4156"
       inkscape:connector-curvature="0"
       sodipodi:nodetypes="cccccccccccccccscsc" />
  </g>
</svg>

<!-- Created with Inkscape (http://www.inkscape.org/) -->
<svg xmlns="http://www.w3.org/2000/svg" viewBox="0 0 16 16">
 <g transform="translate(-534.00041,-169)" style="display:inline">
  <path d="m 5.1 1 -4.1 4.1 0 5.801 4.1 4.1 5.801 0 4.1 -4.1 0 -5.801 -4.1 -4.1 m -3.9 2 2 0 0 6 -2 0 m 1 2 c 0.552 0 1 0.448 1 1 0 0.552 -0.448 1 -1 1 -0.552 0 -1 -0.448 -1 -1 0 -0.552 0.448 -1 1 -1 z" transform="translate(534.00041,169)" style="fill:#353535;opacity:1;fill-opacity:1;stroke:none;fill-rule:nonzero"/>
 </g>
</svg>
